assets/_sprites/dribbble.svg

<?xml version="1.0" encoding="UTF-8"?>
<svg width="23px" height="22px" viewBox="0 0 23 22" version="1.1" xmlns="http://www.w3.org/2000/svg" xmlns:xlink="http://www.w3.org/1999/xlink">
    <!-- Generator: Sketch 43.1 (39012) - http://www.bohemiancoding.com/sketch -->
    <title>dribbble</title>
    <desc>Created with Sketch.</desc>
    <defs></defs>
    <g id="Page-1" stroke="none" stroke-width="1" fill="none" fill-rule="evenodd">
        <g id="dribbble" fill="#EA4C89" fill-rule="nonzero">
            <path d="M0.889,11 C0.889,9.005 1.38,7.165 2.363,5.478 C3.32246341,3.81454637 4.70354637,2.43346341 6.367,1.474 C8.054,0.491 9.894,0 11.889,0 C13.884,0 15.724,0.491 17.411,1.474 C19.0744536,2.43346341 20.4555366,3.81454637 21.415,5.478 C22.398,7.165 22.889,9.005 22.889,11 C22.889,12.995 22.398,14.835 21.415,16.522 C20.4555366,18.1854536 19.0744536,19.5665366 17.411,20.526 C15.724,21.509 13.884,22 11.889,22 C9.894,22 8.054,21.509 6.367,20.526 C4.70354637,19.5665366 3.32246341,18.1854536 2.363,16.522 C1.38,14.835 0.889,12.995 0.889,11 Z M2.715,11 C2.715,13.288 3.485,15.305 5.025,17.05 C5.729,15.671 6.844,14.359 8.369,13.112 C9.894,11.865 11.383,11.081 12.835,10.758 C12.615,10.245 12.402,9.783 12.197,9.372 C9.674,10.179 6.947,10.582 4.013,10.582 C3.441,10.582 3.016,10.575 2.737,10.56 C2.737,10.619 2.733,10.692 2.726,10.78 C2.71938268,10.853156 2.71571304,10.9265488 2.715,11 L2.715,11 Z M3,8.734 C3.323,8.764 3.8,8.778 4.43,8.778 C6.88,8.778 9.204,8.448 11.404,7.788 C10.289,5.808 9.064,4.158 7.73,2.838 C6.57082958,3.42549562 5.55383527,4.25888491 4.75,5.28 C3.93311768,6.29730154 3.33712325,7.47362424 3,8.734 L3,8.734 Z M6.278,18.238 C7.935,19.528 9.805,20.174 11.888,20.174 C12.9947737,20.1699644 14.0912411,19.9611135 15.122,19.558 C14.8339497,17.0724005 14.258089,14.628684 13.406,12.276 C12.056,12.569 10.696,13.31 9.325,14.498 C7.954,15.686 6.938,16.933 6.278,18.238 L6.278,18.238 Z M9.645,2.134 C10.935,3.469 12.131,5.134 13.231,7.128 C15.226,6.292 16.729,5.228 17.741,3.938 C16.04,2.53 14.089,1.826 11.889,1.826 C11.141,1.826 10.393,1.929 9.645,2.134 Z M14.023,8.69 C14.243,9.16 14.493,9.753 14.771,10.472 C15.9486039,10.3652327 17.1305733,10.3138427 18.313,10.318 C19.223,10.318 20.124,10.34 21.019,10.384 C20.902,8.389 20.183,6.614 18.863,5.06 C17.91,6.483 16.296,7.693 14.023,8.69 L14.023,8.69 Z M15.321,12.012 C16.069,14.182 16.575,16.412 16.839,18.7 C17.9875048,17.9622802 18.9570358,16.9777178 19.677,15.818 C20.4025605,14.6671124 20.8541641,13.3649886 20.997,12.012 C20.0231926,11.9422301 19.0472971,11.9055423 18.071,11.902 C17.264,11.902 16.348,11.939 15.321,12.012 L15.321,12.012 Z"></path>
        </g>
    </g>
</svg>

<svg width="23" height="22" viewBox="0 0 23 22" xmlns="http://www.w3.org/2000/svg"><title>dribbble</title><path d="M.889 11c0-1.995.491-3.835 1.474-5.522a10.922 10.922 0 0 1 4.004-4.004C8.054.491 9.894 0 11.889 0s3.835.491 5.522 1.474a10.922 10.922 0 0 1 4.004 4.004c.983 1.687 1.474 3.527 1.474 5.522s-.491 3.835-1.474 5.522a10.922 10.922 0 0 1-4.004 4.004C15.724 21.509 13.884 22 11.889 22s-3.835-.491-5.522-1.474a10.922 10.922 0 0 1-4.004-4.004C1.38 14.835.889 12.995.889 11zm1.826 0c0 2.288.77 4.305 2.31 6.05.704-1.379 1.819-2.691 3.344-3.938 1.525-1.247 3.014-2.031 4.466-2.354-.22-.513-.433-.975-.638-1.386-2.523.807-5.25 1.21-8.184 1.21-.572 0-.997-.007-1.276-.022 0 .059-.004.132-.011.22a2.737 2.737 0 0 0-.011.22zM3 8.734c.323.03.8.044 1.43.044 2.45 0 4.774-.33 6.974-.99-1.115-1.98-2.34-3.63-3.674-4.95A8.931 8.931 0 0 0 4.75 5.28 9.393 9.393 0 0 0 3 8.734zm3.278 9.504c1.657 1.29 3.527 1.936 5.61 1.936a8.969 8.969 0 0 0 3.234-.616 32.305 32.305 0 0 0-1.716-7.282c-1.35.293-2.71 1.034-4.081 2.222-1.371 1.188-2.387 2.435-3.047 3.74zM9.645 2.134c1.29 1.335 2.486 3 3.586 4.994 1.995-.836 3.498-1.9 4.51-3.19-1.701-1.408-3.652-2.112-5.852-2.112-.748 0-1.496.103-2.244.308zm4.378 6.556c.22.47.47 1.063.748 1.782a37.757 37.757 0 0 1 3.542-.154c.91 0 1.811.022 2.706.066-.117-1.995-.836-3.77-2.156-5.324-.953 1.423-2.567 2.633-4.84 3.63zm1.298 3.322c.748 2.17 1.254 4.4 1.518 6.688a9.18 9.18 0 0 0 2.838-2.882 8.886 8.886 0 0 0 1.32-3.806 43.134 43.134 0 0 0-2.926-.11c-.807 0-1.723.037-2.75.11z" fill="#C1C1C1"/></svg>
